public/assets/img/build3.svg

<svg width="77" height="73" viewBox="0 0 77 73" fill="none" xmlns="http://www.w3.org/2000/svg">
<path d="M75.8706 61.682H74.0007V21.4225C74.0007 17.3072 70.6896 13.9591 66.6198 13.9591H63.6963C63.0723 13.9591 62.5667 14.4703 62.5667 15.1013C62.5667 15.7323 63.0723 16.2436 63.6963 16.2436H66.6198C69.4439 16.2436 71.7415 18.5669 71.7415 21.4225V61.682H46.4907C45.7199 61.682 45.0007 62.0665 44.5673 62.7109L44.2285 63.2143C43.9138 63.682 43.3919 63.9611 42.8324 63.9611H34.0169C33.4575 63.9611 32.9355 63.682 32.6207 63.2143L32.282 62.7109C31.8484 62.0667 31.1293 61.682 30.3585 61.682H5.25878V21.4225C5.25878 18.5669 7.55638 16.2436 10.3805 16.2436H28.7555C29.3794 16.2436 29.8851 15.7323 29.8851 15.1013C29.8851 14.4703 29.3794 13.9591 28.7555 13.9591H10.3804C6.31051 13.9591 2.99945 17.3071 2.99945 21.4225V61.682H1.12959C0.505756 61.682 0 62.1932 0 62.8242V65.2024C0 69.502 3.45927 73 7.71121 73H69.2888C73.5407 73 77 69.502 77 65.2024V62.8242C77.0002 62.1932 76.4944 61.682 75.8706 61.682ZM74.741 65.2024C74.741 68.2423 72.2952 70.7155 69.2889 70.7155H7.71121C4.70498 70.7155 2.25919 68.2423 2.25919 65.2024V63.9665H30.3588C30.3811 63.9665 30.402 63.9776 30.4145 63.9962L30.7533 64.4995C31.489 65.5929 32.7091 66.2456 34.017 66.2456H42.8325C44.1404 66.2456 45.3604 65.5929 46.0963 64.4995L46.435 63.9962L46.4352 63.996C46.4477 63.9774 46.4685 63.9665 46.4907 63.9665H74.7408V65.2024H74.741Z" fill="#90A1AE"/>
<path d="M42.2141 15.1013C42.2141 15.7323 42.7197 16.2436 43.3437 16.2436H47.5922C48.2162 16.2436 48.7218 15.7323 48.7218 15.1013C48.7218 14.4703 48.2162 13.9591 47.5922 13.9591H43.3437C42.7197 13.9591 42.2141 14.4703 42.2141 15.1013Z" fill="#90A1AE"/>
<path d="M47.5922 21.117C48.2162 21.117 48.7218 20.6057 48.7218 19.9748C48.7218 19.3438 48.2162 18.8325 47.5922 18.8325H43.3437C42.7197 18.8325 42.2141 19.3438 42.2141 19.9748C42.2141 20.6057 42.7197 21.117 43.3437 21.117H47.5922Z" fill="#90A1AE"/>
<path d="M52.1105 36.7346C51.4866 36.7346 50.981 37.2459 50.981 37.8769V56.8084H48.3115V28.3191C48.3115 26.9346 47.1976 25.8082 45.8282 25.8082H41.4683C40.0989 25.8082 38.985 26.9346 38.985 28.3191V56.8084H36.3157V34.6711C36.3157 33.2865 35.2017 32.1601 33.8324 32.1601H29.4723C28.1031 32.1601 26.9891 33.2865 26.9891 34.6711V56.8084H24.3197V39.5936C24.3197 38.2089 23.2058 37.0825 21.8365 37.0825H17.4765C16.1072 37.0825 14.9932 38.2089 14.9932 39.5936V45.7349C14.9932 46.3659 15.4989 46.8772 16.1228 46.8772C16.7466 46.8772 17.2524 46.3659 17.2524 45.7349V39.5936C17.2524 39.4687 17.3528 39.367 17.4765 39.367H21.8365C21.96 39.367 22.0605 39.4687 22.0605 39.5936V56.8082H17.2524V50.6069C17.2524 49.9759 16.7466 49.4646 16.1228 49.4646C15.4989 49.4646 14.9932 49.9759 14.9932 50.6069V56.8082H10.0784V21.4225C10.0784 21.2541 10.2138 21.117 10.3804 21.117H28.7555C29.3794 21.117 29.8851 20.6057 29.8851 19.9748C29.8851 19.3438 29.3794 18.8325 28.7555 18.8325H10.3804C8.96807 18.8325 7.81919 19.9944 7.81919 21.4225V57.9506C7.81919 58.5816 8.32495 59.0929 8.94879 59.0929H68.0515C68.6755 59.0929 69.1811 58.5816 69.1811 57.9506V21.4225C69.1811 19.9944 68.0321 18.8325 66.6198 18.8325H63.6963C63.0723 18.8325 62.5667 19.3438 62.5667 19.9748C62.5667 20.6057 63.0723 21.117 63.6963 21.117H66.6198C66.7864 21.117 66.9219 21.2539 66.9219 21.4225V56.8084H60.3075V14.2644C60.3075 12.8799 59.1935 11.7535 57.8243 11.7535H53.4642C52.095 11.7535 50.9811 12.8799 50.9811 14.2644V33.0049C50.9811 33.6359 51.4867 34.1472 52.1107 34.1472C52.7347 34.1472 53.2403 33.6359 53.2403 33.0049V14.2644C53.2403 14.1395 53.3407 14.038 53.4642 14.038H57.8243C57.9478 14.038 58.0483 14.1395 58.0483 14.2644V56.8084H53.2401V37.8769C53.2401 37.2459 52.7344 36.7346 52.1105 36.7346ZM29.2482 56.8084V34.6711C29.2482 34.5462 29.3486 34.4446 29.4721 34.4446H33.8322C33.9557 34.4446 34.0563 34.5462 34.0563 34.6711V56.8084H29.2482ZM41.244 56.8084V28.3191C41.244 28.1942 41.3446 28.0927 41.4681 28.0927H45.828C45.9516 28.0927 46.0522 28.1942 46.0522 28.3191V56.8084H41.244Z" fill="#90A1AE"/>
<path d="M30.1395 10.0151H32.1445V12.6337C32.1445 13.2647 32.6502 13.776 33.2741 13.776C33.8979 13.776 34.4036 13.2647 34.4036 12.6337V9.31452C34.4036 8.44123 33.7009 7.73075 32.8373 7.73075H31.664L36.0497 2.64972L40.4354 7.73075H39.2622C38.3986 7.73075 37.696 8.44123 37.696 9.31452V22.3566H34.4038V17.5058C34.4038 16.8748 33.898 16.3636 33.2742 16.3636C32.6504 16.3636 32.1446 16.8748 32.1446 17.5058V22.722C32.1446 23.7801 32.996 24.6411 34.0425 24.6411H38.0574C39.1038 24.6411 39.9554 23.7803 39.9554 22.722V10.0151H41.9602C42.573 10.0151 43.1328 9.65049 43.3863 9.08637C43.6398 8.52225 43.5431 7.85609 43.1402 7.38975L37.23 0.542493C36.9326 0.197685 36.5024 0 36.05 0C35.5975 0 35.1674 0.197685 34.8699 0.542493L28.9599 7.3896C28.5569 7.85609 28.4603 8.52241 28.7138 9.08637C28.967 9.65065 29.5267 10.0151 30.1395 10.0151Z" fill="#90A1AE"/>
</svg>

<svg width="77" height="73" fill="none" xmlns="http://www.w3.org/2000/svg"><path d="M75.87 61.682H74v-40.26c0-4.115-3.31-7.463-7.38-7.463h-2.924c-.624 0-1.13.511-1.13 1.142 0 .631.506 1.143 1.13 1.143h2.924c2.824 0 5.121 2.323 5.121 5.178v40.26h-25.25c-.771 0-1.49.384-1.924 1.029l-.339.503a1.682 1.682 0 0 1-1.396.747h-8.815c-.56 0-1.082-.279-1.396-.747l-.339-.503a2.318 2.318 0 0 0-1.923-1.029h-25.1v-40.26c0-2.855 2.297-5.178 5.121-5.178h18.375c.624 0 1.13-.512 1.13-1.143 0-.63-.506-1.142-1.13-1.142H10.38C6.31 13.96 3 17.307 3 21.422v40.26H1.13c-.624 0-1.13.511-1.13 1.142v2.378C0 69.502 3.46 73 7.711 73H69.29C73.54 73 77 69.502 77 65.202v-2.378c0-.63-.506-1.142-1.13-1.142Zm-1.129 3.52c0 3.04-2.446 5.514-5.452 5.514H7.71c-3.006 0-5.452-2.474-5.452-5.514v-1.235h28.1c.022 0 .043.01.055.03l.34.502a3.932 3.932 0 0 0 3.263 1.747h8.816a3.933 3.933 0 0 0 3.263-1.746l.339-.504a.067.067 0 0 1 .056-.03h28.25v1.236Z" fill="#90A1AE"/><path d="M42.214 15.101c0 .631.506 1.143 1.13 1.143h4.248c.624 0 1.13-.512 1.13-1.143 0-.63-.506-1.142-1.13-1.142h-4.248c-.624 0-1.13.511-1.13 1.142ZM47.592 21.117c.624 0 1.13-.511 1.13-1.142 0-.631-.506-1.143-1.13-1.143h-4.248c-.624 0-1.13.512-1.13 1.143 0 .63.506 1.142 1.13 1.142h4.248Z" fill="#90A1AE"/><path d="M52.11 36.735c-.623 0-1.129.51-1.129 1.142v18.931h-2.67V28.32c0-1.384-1.113-2.51-2.483-2.51h-4.36c-1.37 0-2.483 1.126-2.483 2.51v28.49h-2.67V34.67c0-1.385-1.113-2.51-2.483-2.51h-4.36c-1.369 0-2.483 1.125-2.483 2.51v22.137h-2.67V39.594c0-1.385-1.113-2.511-2.482-2.511h-4.36c-1.37 0-2.484 1.126-2.484 2.51v6.142c0 .63.506 1.142 1.13 1.142.624 0 1.13-.511 1.13-1.142v-6.141c0-.125.1-.227.224-.227h4.36c.123 0 .224.102.224.227v17.214h-4.809v-6.201c0-.631-.505-1.142-1.13-1.142-.623 0-1.129.51-1.129 1.142v6.201h-4.915V21.422c0-.168.136-.305.302-.305h18.376c.623 0 1.13-.511 1.13-1.142 0-.631-.507-1.143-1.13-1.143H10.38c-1.412 0-2.56 1.162-2.56 2.59v36.529c0 .63.505 1.142 1.129 1.142h59.103c.623 0 1.13-.511 1.13-1.142V21.422c0-1.428-1.15-2.59-2.562-2.59h-2.924c-.624 0-1.13.512-1.13 1.143 0 .63.506 1.142 1.13 1.142h2.924c.166 0 .302.137.302.305v35.386h-6.614V14.264c0-1.384-1.114-2.51-2.484-2.51h-4.36c-1.369 0-2.483 1.126-2.483 2.51v18.74c0 .632.506 1.143 1.13 1.143.624 0 1.13-.511 1.13-1.142v-18.74c0-.126.1-.227.223-.227h4.36c.124 0 .224.101.224.226v42.544H53.24V37.877c0-.631-.506-1.142-1.13-1.142ZM29.249 56.808V34.671c0-.125.1-.226.224-.226h4.36c.124 0 .224.101.224.226v22.137h-4.808Zm11.996 0V28.32c0-.125.1-.226.224-.226h4.36c.124 0 .224.101.224.226v28.49h-4.808Z" fill="#90A1AE"/><path d="M30.14 10.015h2.005v2.619c0 .63.505 1.142 1.13 1.142.623 0 1.129-.511 1.129-1.142v-3.32c0-.873-.703-1.583-1.567-1.583h-1.173L36.05 2.65l4.385 5.08h-1.173c-.863 0-1.566.711-1.566 1.585v13.042h-3.292v-4.851c0-.631-.506-1.142-1.13-1.142-.624 0-1.13.51-1.13 1.142v5.216a1.91 1.91 0 0 0 1.898 1.92h4.015a1.91 1.91 0 0 0 1.898-1.92V10.015h2.005c.613 0 1.173-.365 1.426-.929a1.6 1.6 0 0 0-.246-1.696L37.23.542a1.558 1.558 0 0 0-2.36 0L28.96 7.39a1.6 1.6 0 0 0-.246 1.696c.253.565.813.93 1.426.93Z" fill="#90A1AE"/></svg>
